X:96
T:Grasshopper Sittin' on a Sweet Potato Vine
L:1/8
M:C|
K:D
"D"AB AG F2A2|fefed2A2|"G"BA BA G2B2|d2B2"D"A2A2|
"D"AB AG F2A2|fefed2d2|"A"c2A2 B2c2|"D"d3ed4:|
|:"A"ef edc2e2|a2af"D"d2d2|"G"BABA G2B2|d2B2"D"A2A2|
"A"ef edc2e2|a2af"D"d2d2|"A"c2A2 B2c2|"D"d3ed4:|
